X: 6
T: The Acrobat
R: hornpipe
M: 4/4
L: 1/8
K: Gmin
FE|:DFBc dBgf|(3ecA (3ecA a2 ag|f=e_ec Aagf|=efgf dBFE|
DFBc dBgf|(3ecA (3ecA a2 ag|f=e_ec AagA|1B2 d2 B2 FE:|2B2 d2 B2 cB |
[K:Fmaj]|:Acdc afef|dBdf bg^fg|ec=Bc ^cd_e=e|(3fag (3fed c2 cB|
Acdc afef|dBdf bg^fg|ec=Bc ^cd_e=e|1(3fgf eg f2 cB:|2(3fgf eg f2|]


Tune 3459	Setting 16499

